icons/cone_test_on_walls_fill.svg

<svg width="48" height="48" viewBox="0 0 48 48" fill="none" xmlns="http://www.w3.org/2000/svg">
<path fill-rule="evenodd" clip-rule="evenodd" d="M17.7085 38.5131C18.4858 38.2187 19 37.4741 19 36.6428V34.2439L31.9859 30.3481C32.5055 31.974 33.9785 33.1465 35.7144 33.1465C37.8841 33.1465 39.643 31.3149 39.643 29.0556C39.643 28.8415 39.6272 28.6314 39.5968 28.4262C41.0313 27.5845 42 25.9833 42 24.1465C42 22.3097 41.0313 20.7085 39.5968 19.8667C39.6272 19.6616 39.643 19.4514 39.643 19.2374C39.643 16.978 37.8841 15.1465 35.7144 15.1465C34.0743 15.1465 32.6689 16.1931 32.0806 17.68L19 13.7558V11.3572C19 10.526 18.4858 9.78138 17.7085 9.48692L9.38557 6.33432C7.74994 5.71476 6 6.92318 6 8.67222V39.3278C6 41.0769 7.74994 42.2853 9.38557 41.6657L17.7085 38.5131ZM13.9311 31.8528C13.6132 32.8063 13.2784 33.4413 13 33.8013C12.7216 33.4413 12.3868 32.8063 12.0689 31.8528C11.4297 29.9351 11 27.1586 11 24C11 20.8414 11.4297 18.0649 12.0689 16.1472C12.3868 15.1937 12.7216 14.5587 13 14.1987C13.2784 14.5587 13.6132 15.1937 13.9311 16.1472C14.5703 18.0649 15 20.8414 15 24C15 27.1586 14.5703 29.9351 13.9311 31.8528ZM31.581 27.9577C31.2266 27.0576 31.0001 25.6846 31.0001 24.1465C31.0001 22.415 31.2871 20.8929 31.7205 20.0189C30.35 20.2036 29 21.7258 29 24C29 26.197 30.2598 27.6922 31.581 27.9577ZM15.5748 14.8163L29.3012 18.9342C27.8717 20.0371 27 21.9784 27 24C27 26.0214 27.8716 27.9626 29.3008 29.0655L15.575 33.1833C16.4463 30.982 17 27.685 17 24C17 20.3148 16.4463 17.0175 15.5748 14.8163Z" fill="black"/>
</svg>

<svg
  xmlns="http://www.w3.org/2000/svg"
  width="24"
  height="24"
  viewBox="0 0 24 24"
  fill="none"
  stroke="currentColor"
  stroke-width="2"
  stroke-linecap="round"
  stroke-linejoin="round"
>
  <path
    fill-rule="evenodd"
    d="M17.709 38.513A2 2 0 0 0 19 36.643v-2.4l12.986-3.895c.52 1.626 1.992 2.799 3.728 2.799 2.17 0 3.929-1.832 3.929-4.091q0-.323-.046-.63C41.03 27.585 42 25.983 42 24.146c0-1.836-.969-3.437-2.403-4.28a4 4 0 0 0 .046-.629c0-2.259-1.759-4.09-3.929-4.09-1.64 0-3.045 1.046-3.633 2.533L19 13.756v-2.399a2 2 0 0 0-1.291-1.87L9.386 6.334A2.5 2.5 0 0 0 6 8.672v30.656a2.5 2.5 0 0 0 3.386 2.338zm-3.778-6.66c-.318.953-.653 1.588-.931 1.948-.278-.36-.613-.995-.931-1.948C11.429 29.935 11 27.159 11 24s.43-5.935 1.069-7.853c.318-.953.653-1.588.931-1.948.278.36.613.995.931 1.948C14.571 18.065 15 20.841 15 24s-.43 5.935-1.069 7.853m17.65-3.895c-.354-.9-.58-2.273-.58-3.811 0-1.732.286-3.254.72-4.128C30.35 20.204 29 21.726 29 24c0 2.197 1.26 3.692 2.581 3.958M15.575 14.816 29.3 18.934C27.871 20.037 27 21.978 27 24s.872 3.963 2.3 5.066l-13.725 4.117C16.446 30.982 17 27.685 17 24s-.554-6.983-1.425-9.184"
    clip-rule="evenodd"
  />
</svg>
